dist/svgs/remove-link.svg

<svg xmlns="http://www.w3.org/2000/svg" viewBox="0 0 512 512"><path d="M116 102q-3 4-6 7l-7 7Q77 99 51.5 82T0 48V0h48q14 20 26.5 40.5T101 81q4 5 7 10t8 11zm292 294l52 34 52 34v48h-48l-54-81q-4-5-7-10t-8-11q3-4 6-7.5t7-6.5zm71-198q-24 27-51.5 51T373 299l-18.5-18.5L333 258q21-21 42.5-42t41.5-43q17-17 24-36 12-30-12-55-25-23-56-11-17 6-32 21-23 21-44 43t-44 45q-11-12-22-23l-24-24q29-26 56-54t57-52q18-14 39-20t42-4 40.5 11.5T476 40t23.5 36.5 9 41.5-6.5 42-23 38zM171 420q22-21 43-43t44-45l23 23 23 24q-29 26-55.5 54T191 485q-18 14-39 20t-42 3.5T69.5 497 35 472t-23.5-36.5-9-41.5 7-42T32 313q24-27 51.5-50.5T139 213q8 8 18 18.5t22 21.5q-22 22-43 42.5T94 338q-15 17-24 36-12 31 12 55 25 25 56 12 18-7 33-21z"/></svg>

<?xml version="1.0" encoding="UTF-8" standalone="no"?><svg   xmlns:svg="http://www.w3.org/2000/svg"   xmlns="http://www.w3.org/2000/svg"   version="1.1"   width="512"   height="512"   viewBox="0 0 512 512">  <path     d="M116 102Q113 106 110 109L103 116Q77 99 51.5 82T0 48V44V0H44H48Q62 20 74.5 40.5T101 81Q105 86 108 91T116 102zM408 396L460 430L512 464V468V512H468H464L410 431Q406 426 403 421T395 410Q398 406 401 402.5T408 396zM479 198Q455 225 427.5 249T373 299L354.5 280.5T333 258Q354 237 375.5 216T417 173Q434 156 441 137Q453 107 429 82Q404 59 373 71Q356 77 341 92Q318 113 297 135T253 180Q242 168 231 157L207 133Q236 107 263 79T320 27Q338 13 359 7T401 3T441.5 14.5T476 40T499.5 76.5T508.5 118T502 160T479 198zM171 420Q193 399 214 377T258 332L281 355T304 379Q275 405 248.5 433T191 485Q173 499 152 505T110 508.5T69.5 497T35 472T11.5 435.5T2.5 394T9.5 352T32 313Q56 286 83.5 262.5T139 213Q147 221 157 231.5T179 253Q157 275 136 295.5T94 338Q79 355 70 374Q58 405 82 429Q107 454 138 441Q156 434 171 420z"     id="remove-link" /></svg>
